X: 204
T:The Destitution
R:Reel
C:Ian Stephenson
M:C|
K:Em
E2BE dEBE|dcBc ABGF|E2BE dEBE|AGFG AdBG|
E2BE dEBE|dcBc ABGF|EB~B2 GBFB|AGFA BE~E2:|
|:Bede befe|Bede fga2|Bede befe|BcBA BE~E2|
Bede befe|Bede fga2|(3bag af gefd|1 BdAc BE~E2:|2 edBA GAFG||
